X: 10896
T: Drowsy Maggie
R: reel
M: 4/4
K: Dmajor
|:E2BE dEBE|E2BE AFDF|E2BE dEBE|1 BABc dAFD:|2 BABc dAFA||
d2fd B/c/d ec|defg afge|d2fd B/c/d ec|BABc dAFA|
d2fd B/c/d ec|defg afge|afge fdec|BABc dAFA||
dBfB dBfB|cAeA fAeA|dBfB dBfB|fef^g aecA|
dBfB dBfB|cAeA fAeA|defd B/c/d ec|BABc dAFD||

